X:1
T:Title
%%score 1 2 3 4
L:1/8
M:3/2
K:C
V:1 treble nm="Part_1"
V:2 treble-8 nm="Part_2"
V:3 treble-8 nm="Part_3"
V:4 bass nm="Part_4"
V:1
 A12 | G12 | A4 F6 GA | _B2 A4 G3 F E2 | D4 z2 F4 E2 | D4 C2 E4 F2 | G2 E2 F2 E2 D3 C | C12 | z12 | %9
 D4 F4 E4 | D8 C4 | D4 C2 A,2 B,4 | A,4 C2 D4 C2 | D3 E F2 D2 E2 F2 | G3 FED D4 C2 | D12 | z12 | %17
 F4 F4 G4 | A4 _B6 A2 | A4 G2 A4 F2 | E2 F2 GFED C4 | (3D3 E F2 z4/3 (3:2:4E3 D D4 C2 | %22
 (3:2:2D4 E2 z8/3 (3:2:2D2 E6 | D4 z4 z4 | A4 A4 B4 | c6 B2 A4 | G4 z2 A2 B2 c2 | A2 B4 A4 ^G2 | %28
 A12 | z12 | z12 | A8 F4 | E4 F2 E2 D4 | C2 E3 F G4 A2- | A2 F4 G4 F2 | D2 E2 F4 z2 C2 | %36
 D2 F2 E2 C4 F2 | E2 D3 C C4 B,2 | C8 z4 | E4 E2 F2 G4- | G2 A4 G2 F3 E | E4 z2 G4 A2- | %42
 A2 G4 F2 E4 | D4 z2 F2 G2 E2- | E2 A4 ^G2 G2 ^F2 | A8 z2 F2 | E2 G4 E4 C2- | C2 F4 G2 F2 D2 | %48
 E2 F2 G2 A4 F2 | E2 G4 F2 D2 E2 | F3 E D2 D3 ^CCB, | D12 |] %52
V:2
 A8 c4- | c4 B8 | A8 d4- | d4 c8 | d8 A4 | _B4 A8 | G4 A4 F4- | F4 E8 | D4 F4 E4 | D8 C4 | %10
 D2 F4 A4 G2 | A4 c4 B2 d2 | c2 A8 G2 | A6 B2 c3 B | G3 E F2 A4 G2 | A8 z4 | z12 | z12 | z12 | %19
 z12 | z12 | z12 | A4 d4 c4 | d4 d4 e4 | f6 e2 d4 | c8 d4 | e4 f4 e2 c2 | d4 c2 A2 B4 | %28
 A3 B c2 d4 c2 | d3 e f2 d2 c2 d2- | d2 e3 d cB c4 | d12 | c8 d4 | e12 | c4 d4 _B4- | B4 c2 d4 c2 | %36
 _B2 A2 c8 | z2 _B2 A2 G4 F2 | G8 c4- | c4 A4 G4 | B2 A2 c4 d2 B2 | c12 | z4 z4 A4 | D8 E2 F2- | %44
 F2 A2 E8 | F4 D8 | C8 c4- | c4 d8 | c2 A2 B2 c2 d4 | G2 c2 B2 A2 G2 B2 | c4 B2 A4 G2 | A12 |] %52
V:3
 z12 | z12 | z12 | z12 | z12 | z12 | z12 | D4 A,8 | z12 | z12 | D4 F4 E4 | D2 F4 A2 G4 | %12
 A4 F2 D2 E4 | D8 C4- | C4 D4 E4 | D8 z4 | F4 F4 G4 | A4 _B4 B4 | A4 G4 d4 | c2 _B4 A2 A4- | %20
 A4 G4 E4 | (3:2:1D6 z8/3 (3:2:2F4 E4 | D8 A4 | D4 z4 z4 | z12 | z12 | z12 | z12 | z12 | D8 F4 | %30
 G4 E8 | D12 | A8 _B4 | A4 c8 | A4 _B4 G4- | G4 F8 | D4 C4 F4 | G4 F2 E2 D4 | C12 | z12 | z12 | %41
 C12 | c12 | d8 c4 | A4 B8 | A12 | c8 A4 | F4 _B8 | A4 G2 F2 D4 | z2 C2 E2 F2 G4 | A4 G2 F2 E4 | %51
 D12 |] %52
V:4
 A,4 F,8 | E,4 E,8 | F,4 D,8 | D,4 F,2 E,2 C,4 | G,2 F,2 D,4 z4 | G,4 A,4 C4 | B,4 C4 A,4 | A,12 | %8
 D4 D4 C4 | D3 C A,2 B,2 C4 | A,4 D,4 A,,4 | z12 | A,,6 D,2 A,,4 | D,4 F,4 G,4 | E,4 z2 D,2 A,,4 | %15
 F,4 F,4 G,4 | A,4 D,2 F,2 E,4 | D,4 D4 G,4 | C4 D4 D,4 | z4 G,2 F,2 D,4 | z2 F,2 E,2 C,4 A,,2 | %21
 (3:2:1A,6 z8/3 (3:2:2A,4 G,4 | A,8 F,3 G, | A,4 F,2 G,2 E,4 | D,8 G,4 | A,4 z4 D,4 | %26
 G,4 F,4 G,2 A,2 | D,4 z2 F,2 E,4 | F,6 D,2 A,4 | D,4 A,8 | _B,4 G,8 | A,12 | A,,8 D,4 | %33
 A,,4 z4 z4 | z12 | z4 A,8 | F,4 G,4 A,4 | E,2 G,2 D,2 z2 D,2 F,2 | E,3 F, G,4 C,4 | C,4 C4 B,4 | %40
 G,2 F,4 E,2 D,4 | C,4 F,4 C,4- | C,4 z4 A,,4 | A,8 z4 | z12 | A,4 D8 | G,8 z2 F,2- | %47
 F,2 A,2 D,2 G,2 D,4 | A,2 C2 B,2 A,4 B,2 | C2 G,4 A,2 z4 | A,,4 B,,2 D,2 A,,4 | A,12 |] %52

